X: 1116
T: the Rocky Road to Dublin
R: slipjig
%S: s:5 b:16(5+5+5+5)
B: O'Neill's 1850 #1116
O: McFadden
Z: Michael Hogan
Z: Michael D. Long, 12/09/98
M: 9/8
L: 1/8
K: A
"^A"|: efe d2B A2A | E2A A2A Bcd | efe d2B A2c | B2A G2A Bcd :|
"^B"|: e2a {b}a2f g2b | e2a {b}a2A Bcd |1 e2a {b}a2f g2e | d2B G2A Bcd :|2 efg fga gfe | d2B G2A Bcd |]
"^C"|: ecA ecA A2a | ecA ecA Bcd |1 ecA ecA a2c | d2B G2A Bcd :|2 efg fga gfe | d2B G2A Bcd |]
%%text Usually played with g naturals.
